X: 4457
T: Bonnie Kate
R: reel
M: 4/4
K: Dmajor
|:dB|A2dA (3Bcd AF|DFAF EGFE|DFAF GBed|cABc d2 dB|
A2dA BdAF|DFAF EGFE|DFAF GBed|cABc d2:|
|:fg|a2 fd Adfa|g2 ec Acef|g3f gbag|fgef defg|
a2 fd Adfa|g2 ec Acef|g3f gbag|fgef d2:|

